src/topics/icons/nodemon.svg

<svg height="292" preserveAspectRatio="xMidYMid" viewBox="0 0 256 292" width="256" xmlns="http://www.w3.org/2000/svg"><path d="m120.946627 289.190209c4.258388 2.461612 9.511164 2.461612 13.769552 0l114.081433-65.830209c4.26603-2.459701 6.89194-7.007522 6.89194-11.934567v-131.7616718c0-4.9232239-2.626865-9.4681791-6.885253-11.9336119l-114.079523-65.88370154c-4.266985-2.46161194-9.519761-2.46161194-13.785791 0l-114.04991037 65.88370154c-4.26220896 2.4644776-6.88907463 7.0113432-6.88907463 11.9336119v131.7693138c0 4.919403 2.62686567 9.466268 6.8919403 11.92597l114.0537317 65.830209" fill="#76d04b"/><path d="m201.701254 114.111045-5.087523-2.927761c7.823284-11.5391049 12.49815-28.887881 6.635941-54.825075 0 0-13.201194 36.9986865-39.739224 35.7731343l-31.073433-17.8817911c-1.17206-.6954029-2.485493-1.0536119-3.813254-1.1080597h-.716418c-1.324895.055403-2.636418.413612-3.824716 1.1080597l-31.0762986 17.8817911c-26.5351642 1.2293731-39.7411344-35.7731343-39.7411344-35.7731343-5.8650746 25.9362388-1.1825671 43.2850149 6.638806 54.825075l-5.0865672 2.928716c-2.5838806 1.489194-4.1905671 4.254567-4.1905671 7.271164l.1528358 107.331821c0 1.497791.7756418 2.884776 2.0900298 3.613612 1.2838209.775642 2.8733135.775642 4.1552239 0l41.1644179-23.571104c2.6048959-1.547463 4.1886569-4.276538 4.1886569-7.259702v-50.142567c0-2.989851 1.583761-5.761911 4.177194-7.243463l17.528358-10.093851c1.305791-.760358 2.734806-1.130029 4.193433-1.130029 1.426149 0 2.892418.369671 4.16191 1.129074l17.522627 10.093851c2.594388 1.480597 4.183881 4.253612 4.183881 7.242507v50.142568c0 2.983164 1.604776 5.733253 4.193433 7.259701l41.15391 23.571105c1.291463.773731 2.903881.773731 4.183881 0 1.275224-.728836 2.077612-2.116777 2.077612-3.614568l.133731-107.33182c-.002866-3.018508-1.585672-5.783881-4.185791-7.271165z" fill="#4f4d3f"/></svg>

<?xml version="1.0" encoding="UTF-8" standalone="no" ?>
<svg width="256px" height="292px" viewBox="0 0 256 292" version="1.1" xmlns="http://www.w3.org/2000/svg" xmlns:xlink="http://www.w3.org/1999/xlink" preserveAspectRatio="xMidYMid">
    <g>
        <path d="M120.946627,289.190209 C125.205015,291.651821 130.457791,291.651821 134.716179,289.190209 L248.797612,223.36 C253.063642,220.900299 255.689552,216.352478 255.689552,211.425433 L255.689552,79.6637612 C255.689552,74.7405373 253.062687,70.1955821 248.804299,67.7301493 L134.724776,1.84644776 C130.457791,-0.615164179 125.205015,-0.615164179 120.938985,1.84644776 L6.88907463,67.7301493 C2.62686567,70.1946269 0,74.7414925 0,79.6637612 L0,211.433075 C0,216.352478 2.62686567,220.899343 6.8919403,223.359045 L120.945672,289.189254" fill="#76D04B"></path>
        <path d="M201.701254,114.111045 L196.613731,111.183284 C204.437015,99.6441791 209.111881,82.295403 203.249672,56.358209 C203.249672,56.358209 190.048478,93.3568955 163.510448,92.1313433 L132.437015,74.2495522 C131.264955,73.5541493 129.951522,73.1959403 128.623761,73.1414925 L127.907343,73.1414925 C126.582448,73.1968955 125.270925,73.5551045 124.082627,74.2495522 L93.0063284,92.1313433 C66.4711642,93.3607164 53.265194,56.358209 53.265194,56.358209 C47.4001194,82.2944478 52.0826269,99.6432239 59.904,111.183284 L54.8174328,114.112 C52.2335522,115.601194 50.6268657,118.366567 50.6268657,121.383164 L50.7797015,228.714985 C50.7797015,230.212776 51.5553433,231.599761 52.8697313,232.328597 C54.1535522,233.104239 55.7430448,233.104239 57.0249552,232.328597 L98.1893731,208.757493 C100.794269,207.21003 102.37803,204.480955 102.37803,201.497791 L102.37803,151.355224 C102.37803,148.365373 103.961791,145.593313 106.555224,144.111761 L124.083582,134.01791 C125.389373,133.257552 126.818388,132.887881 128.277015,132.887881 C129.703164,132.887881 131.169433,133.257552 132.438925,134.016955 L149.961552,144.110806 C152.55594,145.591403 154.145433,148.364418 154.145433,151.353313 L154.145433,201.495881 C154.145433,204.479045 155.750209,207.229134 158.338866,208.755582 L199.492776,232.326687 C200.784239,233.100418 202.396657,233.100418 203.676657,232.326687 C204.951881,231.597851 205.754269,230.20991 205.754269,228.712119 L205.888,121.380299 C205.885134,118.361791 204.302328,115.596418 201.702209,114.109134 L201.701254,114.111045 Z" fill="#4F4D3F"></path>
    </g>
</svg>
